!!!!SEGMENT: pl-wnifc--13846--045_anonim--piesni-polskie-i-ruskie-ludu-galicyjskiego-45-nie-chodz-do-miasteczka.krn
!!!kernsource:
!!!cenid: 18xx:3267
!!!COM: Anonim
!!!COM-rismID: pe30004985
!!!CDT:
!!!CNT:
!!!GTL: Pieśni polskie i ruskie ludu galicyjskiego
!!!OTL: 45. Nie chodź do miasteczka
!!!PDT: 1833
!!!AGN:
!!!SMS-siglum: PL-Wnifc
!!!SMS-shelfmark: 13846
!!!SMS-shelfwork: 045 G
!!!SMS-variant:
!!!SMS-altvar:
!!!NIFC-rismSourceID: 1001036938
!!!NIFC-rismChildID: 1001036938
!!!NIFC-islandoraID:
!!!URL-pdf-islandora:
!!!URL-scan:
!!!ONB-nifc:
!!!OMD: Vivace
!!!AIN: 1 piano 1 vox
!!!key: C
**kern	**kern	**dynam	**kern	**text
*part2	*part2	*part2	*part1	*part1
*staff3	*staff2	*	*staff1	*staff1
*I"Fortepian	*I"Fortepian	*	*I"Głos	*
*Ipiano	*Ipiano	*	*Ivox	*
*ICklav	*ICklav	*	*ICvox	*
*IGacmp	*IGacmp	*	*IGsolo	*
*clefF4	*clefG2	*	*clefG2	*
*k[]	*k[]	*	*k[]	*
*C:	*C:	*	*C:	*
*M2/4	*M2/4	*	*M2/4	*
=1	=1	=1	=1	=1
!	!	!	!LO:TX:a:t=D.b.Б.\n181.	!
8CC/ 8C/	8e/L 8g/	.	8g/	Nie
8r	8e/J 8g/ 8cc/	.	8cc\	chodź
4C\^< 4E\ 4G\	8e/L 8g/ 8cc/	.	8cc\	do
.	8e/J 8g/ 8cc/	.	8cc\	mia-
=2	=2	=2	=2	=2
8GGG/ 8GG/	(8e/L [8g/ 8cc/	.	(8cc\L	-stecz-
8r	8d/J) 8g/] 8b/	.	8b\J)	.
4GG/^ 4D/ 4G/	4d/^ 4g/ 4b/	.	4b\	ka
!!LO:PB:g=original
=3	=3	=3	=3	=3
8GGG/ 8GG/	8B/L 8d/ 8g/	.	8g/	nie
8r	8d/J 8g/ 8b/	.	8b/	chciej
4GG\^< 4D\ 4G\	8g\L 8b\ 8dd\	.	8dd\	chłop-
.	8b\J 8dd\ 8ff\	.	8ff\	-ców
=4	=4	=4	=4	=4
8CC/ 8C/	(8g\L 8dd\ 8ff\	.	(8ff\L	zwo-
8r	8g\J) 8cc\ 8ee\	.	8ee\J)	.
4C\^< 4G\ 4c\	4g\ 4cc\ 4ee\	.	4ee\	dzić,
!!LO:LB:g=original
=5	=5	=5	=5	=5
8GGG/ 8GG/	(8g\L 8gg\	.	8gg\	boś
8r	8f\J) 8ff\	.	8ff\	ła-
4G\^< 4B\ 4d\	4g\^< 4dd\	.	4dd\	-dna
=6	=6	=6	=6	=6
8CC/ 8C/	(>[>8g\L 8gg\	.	8gg\	dzie-
8r	8g\J]) 8ee\	.	8ee\	-wecz-
4G\^> 4c\ 4e\	4g\^ 4cc\	.	4cc\	-ka,
!!LO:LB:g=original
=7	=7	=7	=7	=7
8GGG/ 8GG/	8d/L 8f/ 8g/	.	8g/	mo-
8r	8d/J 8f/ 8g/ 8b/	.	8b/	-że
4GG/ 4D/ 4G/	8f/L 8g/ 8b/	.	8b/	ci
.	8f/J 8g/ 8b/ 8dd/	.	8dd\	co
=8	=8	=8	=8	=8
8CC/ 8C/	(8e/L 8g/ 8dd/	>	(8dd\L	szko-
8r	8cc\J)	]	8cc\J)	.
*	*^	*	*	*
4C\^< 4G\ 4c\	4e\ 4g\	4cc/	.	4cc\	dzić
*	*v	*v	*	*	*
!!LO:LB:g=original
==	==	==	==	==
*-	*-	*-	*-	*-
!!!system-decoration: s1,{(s2,s3)}
!!!RDF**kern: < = below
!!!RDF**kern: > = above
!!!ENC: Marta Chmielewska
!!!END: 2021-11-10
!!!YEC: Copyright 2022 Narodowy Instytut Fryderyka Chopina (https://polishscores.org)
!!!YEM: License CC-BY-4.0 (https://creativecommons.org/licenses/by/4.0)
